packages/icons/web/settings_large.svg

<svg width="24" height="24" viewBox="0 0 24 24" fill="none" xmlns="http://www.w3.org/2000/svg">
<path fill-rule="evenodd" clip-rule="evenodd" d="M21.9954 12.6416C22.0551 13.7996 21.538 14.4805 20.4469 14.6866C20.0655 14.764 19.6865 14.8342 19.3085 14.896C19.2795 14.9717 19.2489 15.0442 19.2175 15.1182L19.2163 15.121C19.4899 15.4808 19.748 15.8493 19.9905 16.228C20.0031 16.2488 20.0146 16.2703 20.0259 16.2914C20.0298 16.2987 20.0336 16.3059 20.0375 16.3131C20.1436 16.5218 20.2071 16.7411 20.2304 16.9704L20.2229 16.9481C20.2878 17.4818 20.1382 17.952 19.7744 18.3577C19.7652 18.3679 19.7575 18.3783 19.7504 18.3885C19.3764 18.7732 18.9968 19.158 18.6123 19.5424C18.6022 19.5529 18.5917 19.5643 18.5816 19.5735C17.7996 20.4139 16.9582 20.5108 16.0569 19.868H16.0721C15.7546 19.6535 15.4394 19.436 15.128 19.2171C15.075 19.1769 15.0199 19.1374 14.9648 19.1002L14.95 19.0853C14.9388 19.159 14.9284 19.2309 14.9192 19.3019C14.8473 19.7505 14.7622 20.1943 14.6635 20.6338C14.6608 20.6476 14.6581 20.6635 14.6551 20.6804C14.5872 20.9277 14.4723 21.1422 14.3146 21.3232C14.3099 21.329 14.3045 21.3344 14.2987 21.3391C13.9714 21.7242 13.5535 21.9377 13.0442 21.9816H12.9823C12.4456 21.9907 11.9031 21.9965 11.3562 21.9965C11.3403 21.9975 11.3255 21.9975 11.3096 21.9965C10.1712 22.0394 9.51015 21.5161 9.32639 20.425V20.448C9.24904 20.0656 9.17945 19.6839 9.11831 19.3015C9.04197 19.2718 8.96664 19.2411 8.89402 19.2093C8.53697 19.4741 8.16776 19.7268 7.78639 19.9677C7.77829 19.9734 7.77085 19.9788 7.76309 19.9835C7.54588 20.1234 7.30605 20.2055 7.04257 20.2315H7.03548C6.52372 20.2734 6.06466 20.1214 5.6566 19.7744L5.60256 19.7275C5.23031 19.3552 4.85333 18.984 4.47196 18.6118C4.46552 18.6072 4.46009 18.6017 4.45471 18.5962C4.45248 18.5939 4.45026 18.5917 4.44798 18.5895C3.617 17.8183 3.51094 16.9789 4.13079 16.0729C4.13618 16.0645 4.14123 16.0571 4.14629 16.0497L4.14633 16.0496C4.35035 15.7361 4.56452 15.4274 4.78949 15.1207C4.82901 15.0636 4.87022 15.0068 4.91312 14.9497C4.87575 14.9443 4.83848 14.9388 4.80126 14.9333C4.76882 14.9285 4.73642 14.9237 4.70402 14.919C4.24598 14.8481 3.79164 14.7575 3.34069 14.6474L3.40284 14.6555C3.09849 14.6008 2.83535 14.4633 2.61342 14.2441C2.25806 13.9232 2.0591 13.5175 2.01687 13.0287C2.01654 13.0024 2.01654 12.9774 2.01687 12.9513C2.01687 12.4197 2.01214 11.8883 2.00201 11.3563C2.001 11.3462 2.001 11.336 2.00201 11.3255C1.96316 10.1973 2.48708 9.52544 3.57377 9.31196L3.55789 9.31973C3.93352 9.24068 4.31286 9.1711 4.69659 9.11097C4.7226 9.03868 4.75098 8.96673 4.78172 8.89411C4.50709 8.52085 4.24598 8.13846 3.99972 7.74865C3.99458 7.73695 3.9891 7.72606 3.98375 7.71541C3.98138 7.7107 3.97904 7.70603 3.97675 7.70136C3.86224 7.49902 3.79266 7.27439 3.768 7.0278L3.77543 7.0511C3.71057 6.51705 3.85988 6.04684 4.22402 5.64115C4.23269 5.63186 4.23937 5.62229 4.24589 5.61295C4.24648 5.6121 4.24707 5.61126 4.24766 5.61041C4.61958 5.22904 4.99689 4.84632 5.37792 4.46495C6.15012 3.59682 7.00237 3.48603 7.93333 4.13155H7.9259C8.2441 4.34639 8.5596 4.56562 8.87037 4.78957C8.92372 4.82494 8.97601 4.8619 9.02888 4.89928C9.0356 4.90403 9.04233 4.90879 9.04907 4.91355C9.05852 4.84193 9.06866 4.76998 9.07981 4.69668C9.14973 4.24978 9.23519 3.80524 9.33484 3.3651C9.33687 3.35125 9.33957 3.33571 9.34261 3.31848C9.41152 3.07122 9.52535 2.85672 9.6831 2.67566C9.68783 2.66992 9.69324 2.66451 9.69898 2.65978C10.0263 2.27504 10.4442 2.06088 10.9525 2.01764C10.9748 2.0173 10.9958 2.0173 11.0157 2.01764C11.5528 2.0075 12.0946 2.00244 12.6418 2.00244C12.6577 2.00142 12.6726 2.00142 12.6885 2.00244C13.8275 1.95954 14.4869 2.48278 14.67 3.57419V3.55088C14.748 3.93023 14.8179 4.30991 14.8797 4.68959C14.8936 4.7612 14.9067 4.83383 14.9189 4.90645C14.9192 4.91523 14.9223 4.92604 14.926 4.93719C15.4607 4.53386 15.8945 4.22411 16.2265 4.00826C16.2394 4.00113 16.2515 3.99416 16.2639 3.98702C16.2697 3.98367 16.2755 3.98029 16.2816 3.97684C16.4829 3.86301 16.7079 3.79308 16.9541 3.76775H16.9622C17.4736 3.72552 17.9324 3.87753 18.3411 4.22512C18.352 4.23375 18.3626 4.243 18.3735 4.25249C18.3806 4.25861 18.3877 4.26484 18.3951 4.27106C18.7664 4.64263 19.1434 5.01455 19.5257 5.38679C19.5332 5.39389 19.5413 5.40166 19.548 5.40909C20.3956 6.19378 20.4966 7.03793 19.851 7.94187V7.92599L19.831 7.95552C19.6249 8.25987 19.4183 8.56486 19.2075 8.8708C19.1686 8.92351 19.1308 8.97692 19.0922 9.03141C19.0843 9.04257 19.0764 9.05378 19.0684 9.06503C19.1467 9.07449 19.2241 9.08462 19.3008 9.09577C19.7352 9.16434 20.1662 9.24677 20.5935 9.34337C20.6074 9.3454 20.6195 9.34776 20.6327 9.35114C20.8874 9.40249 21.111 9.51396 21.3059 9.68421C21.3131 9.68937 21.3186 9.69531 21.3241 9.7013C21.3258 9.70315 21.3275 9.705 21.3292 9.70684C21.3481 9.72238 21.3654 9.73758 21.3833 9.75346C21.7629 10.0858 21.9616 10.5037 21.9805 11.0084V11.0307C21.9896 11.5681 21.9954 12.1052 21.9954 12.6416ZM11.1461 3.76741C11.1441 3.77923 11.1417 3.78937 11.1387 3.79883V3.81369L11.1461 3.76741ZM11.1072 3.87618V3.86774L11.1002 3.87618H11.1072ZM3.86697 12.874L3.87474 12.8814V12.874H3.86697ZM12.8539 20.2137C12.8551 20.2086 12.8562 20.2037 12.8577 20.1994V20.1845L12.8492 20.2311C12.8512 20.2253 12.8526 20.2193 12.8539 20.2137ZM12.8881 20.122V20.1305L12.8965 20.122H12.8881ZM18.5029 13.1297C18.5924 13.1196 18.6934 13.1091 18.8052 13.099V13.0986H18.7512C19.1927 13.0287 19.6335 12.9483 20.075 12.8588C20.1189 12.8385 20.1395 12.7966 20.1365 12.7348V12.6882C20.1365 12.1724 20.1317 11.6556 20.1216 11.1398C19.674 11.0428 19.2224 10.9628 18.766 10.8993C18.7465 10.8955 18.7258 10.8911 18.7046 10.8844H18.6961C18.4833 10.905 18.2877 10.8567 18.1087 10.7371C17.9209 10.6121 17.7932 10.4415 17.729 10.226C17.6223 9.87168 17.4807 9.52544 17.3024 9.18833C17.2064 9.00727 17.1727 8.81608 17.2017 8.61509C17.2331 8.41444 17.321 8.24081 17.4645 8.09624C17.4909 8.07023 17.5138 8.04185 17.5348 8.01145V8.01888C17.8003 7.64191 18.0614 7.26527 18.3161 6.88829V6.87309C18.3272 6.83661 18.3114 6.80046 18.2705 6.76432C18.2621 6.75554 18.2546 6.74743 18.2472 6.74135C17.8706 6.37315 17.498 6.00698 17.1325 5.64115C16.7379 5.89788 16.3535 6.16406 15.9786 6.43902L15.9701 6.44679C15.9573 6.45524 15.9441 6.46537 15.932 6.47753C15.7884 6.64406 15.6104 6.74709 15.3976 6.78729C15.1837 6.82816 14.9794 6.79776 14.7855 6.69406C14.4609 6.51672 14.1221 6.37552 13.7714 6.26877C13.5748 6.21 13.414 6.09886 13.2911 5.93571C13.1681 5.76985 13.1063 5.58407 13.1053 5.37801C13.1053 5.35234 13.1029 5.327 13.0982 5.30066C13.0925 5.28309 13.0871 5.26451 13.082 5.24661C13.0121 4.80545 12.932 4.36362 12.8425 3.92246V3.89915C12.8229 3.86875 12.7864 3.85625 12.7334 3.8603C12.7165 3.86064 12.7006 3.86064 12.6874 3.8603C12.1601 3.86098 11.6396 3.86605 11.1228 3.87618C11.0255 4.32443 10.9458 4.77573 10.8826 5.23107C10.8789 5.251 10.8738 5.27127 10.8677 5.29323V5.30066C10.888 5.51414 10.8394 5.70973 10.7195 5.88943C10.5945 6.07691 10.4249 6.20392 10.2094 6.26911C9.86146 6.37349 9.53042 6.51266 9.21763 6.68696C9.03522 6.7883 8.842 6.82411 8.63696 6.79573C8.43361 6.76736 8.25728 6.67953 8.11034 6.53225C8.085 6.50928 8.05393 6.48665 8.01744 6.46267C8.00934 6.45389 8.0019 6.44645 7.99414 6.43936C7.63033 6.17588 7.26112 5.91848 6.88651 5.6648H6.87942C6.84057 5.64892 6.80476 5.6621 6.77031 5.70398C6.76459 5.7097 6.75881 5.71529 6.7531 5.72081C6.74566 5.72801 6.73834 5.73508 6.73146 5.74215C6.36259 6.11204 5.99879 6.48091 5.64073 6.84944C5.88597 7.24094 6.14911 7.62299 6.42981 7.99591C6.43353 8.00166 6.43893 8.00672 6.44569 8.01179C6.63114 8.15434 6.74734 8.34013 6.79395 8.56915C6.84125 8.79412 6.80848 9.00862 6.69262 9.21163C6.51629 9.52511 6.38218 9.85581 6.2903 10.2027C6.23558 10.4054 6.12411 10.5713 5.95724 10.6979C5.78936 10.827 5.60087 10.8911 5.39245 10.8922C5.35867 10.8938 5.32219 10.8986 5.28435 10.907C5.26847 10.9097 5.25365 10.9115 5.23873 10.9133C5.23303 10.914 5.22732 10.9147 5.22152 10.9155C4.79151 10.9726 4.36488 11.0452 3.94399 11.132L3.92912 11.1404C3.869 11.1516 3.84468 11.1928 3.8592 11.2634V11.2951C3.86934 11.8157 3.87406 12.3372 3.8744 12.8595C4.32198 12.9649 4.77395 13.05 5.22929 13.1142C5.25057 13.1172 5.27152 13.1172 5.29179 13.1142C5.51608 13.0888 5.72247 13.1412 5.91096 13.2689C6.10148 13.3969 6.22883 13.5705 6.2903 13.7887C6.38624 14.1346 6.51967 14.4667 6.69262 14.7876C6.79024 14.9676 6.82436 15.1588 6.79395 15.3602C6.76322 15.5638 6.67606 15.7392 6.53048 15.8864C6.51629 15.9033 6.50345 15.9209 6.49163 15.9405C6.48038 15.9571 6.46807 15.9735 6.45554 15.9902C6.45227 15.9945 6.44898 15.9989 6.44569 16.0033C6.17985 16.357 5.92954 16.7161 5.6941 17.0799C5.69351 17.0807 5.69292 17.0815 5.69233 17.0823C5.68747 17.0889 5.68255 17.0956 5.67924 17.1032C5.66133 17.1488 5.6762 17.1927 5.72518 17.2346C5.72663 17.2361 5.72806 17.2376 5.72947 17.2391C5.73595 17.2459 5.7421 17.2523 5.74848 17.2579C6.12276 17.6217 6.49197 17.9855 6.85577 18.3493C7.24863 18.102 7.62797 17.8413 7.99447 17.5676C8.01609 17.5508 8.03636 17.5359 8.05663 17.521H8.06406C8.20391 17.3579 8.37956 17.2542 8.59068 17.2113C8.80214 17.1694 9.00346 17.1981 9.19533 17.2961C9.53211 17.4707 9.88375 17.6183 10.2486 17.7382C10.4398 17.8021 10.5945 17.9159 10.713 18.0791C10.8319 18.2412 10.8911 18.4219 10.8911 18.6209C10.8934 18.6479 10.8981 18.6783 10.9066 18.7131C10.9086 18.728 10.911 18.7408 10.914 18.7519C10.9839 19.1934 11.064 19.6343 11.1542 20.0768V20.0997C11.1735 20.1298 11.2096 20.142 11.2623 20.1379C11.2795 20.1372 11.2954 20.1372 11.3089 20.1379C11.8355 20.1379 12.3567 20.1322 12.8736 20.122C12.9695 19.6745 13.0506 19.2222 13.1134 18.7668C13.1171 18.7479 13.1218 18.7273 13.1293 18.705V18.6976C13.108 18.4851 13.1573 18.2882 13.2759 18.1091C13.4009 17.9216 13.5715 17.7946 13.787 17.7294C14.1403 17.6241 14.4764 17.4869 14.7936 17.319C14.9753 17.2231 15.1655 17.1893 15.3672 17.218C15.5678 17.2498 15.7411 17.3373 15.8857 17.4822C15.8885 17.4843 15.8918 17.4863 15.8952 17.4885C15.8994 17.4911 15.9039 17.4939 15.908 17.497C15.9376 17.5145 15.9666 17.535 15.9958 17.5557L16.0012 17.5595C16.3657 17.8227 16.7352 18.0801 17.1092 18.3338H17.124C17.1605 18.3432 17.197 18.328 17.2321 18.2871C17.2433 18.2777 17.2537 18.2665 17.2632 18.2564C17.6354 17.8838 18.002 17.5129 18.3637 17.1407C18.1175 16.7637 17.8537 16.3941 17.5726 16.0334C17.554 16.0074 17.5365 15.9824 17.5186 15.956V15.9489C17.3527 15.805 17.25 15.627 17.2092 15.4142C17.1679 15.2007 17.1994 14.9964 17.302 14.8021C17.4797 14.4775 17.6216 14.139 17.7287 13.7884C17.7817 13.6111 17.8797 13.4607 18.0222 13.3385C18.1624 13.2206 18.3229 13.151 18.5029 13.1297ZM14 12C14 13.1046 13.1046 14 12 14C10.8954 14 10 13.1046 10 12C10 10.8954 10.8954 10 12 10C13.1046 10 14 10.8954 14 12ZM16 12C16 14.2091 14.2091 16 12 16C9.79086 16 8 14.2091 8 12C8 9.79086 9.79086 8 12 8C14.2091 8 16 9.79086 16 12Z" fill="#212933"/>
</svg>

<svg width="24" height="24" fill="none" xmlns="http://www.w3.org/2000/svg">
    <path fill-rule="evenodd" clip-rule="evenodd" d="M21.995 12.642c.06 1.158-.457 1.838-1.548 2.045-.381.077-.76.147-1.139.209-.029.076-.06.148-.09.222l-.002.003c.274.36.532.728.774 1.107.013.02.025.042.036.063l.012.022c.106.209.17.428.192.657l-.007-.022a1.714 1.714 0 01-.449 1.41.307.307 0 00-.024.03c-.374.385-.753.77-1.138 1.154l-.03.031c-.782.84-1.624.938-2.525.295h.015a61.87 61.87 0 01-1.107-.768l-.015-.015a9.971 9.971 0 00-.03.217c-.073.448-.158.892-.256 1.332l-.009.046a1.618 1.618 0 01-.356.66 1.785 1.785 0 01-1.255.642h-.062a95.884 95.884 0 01-1.672.015c-1.139.042-1.8-.48-1.984-1.572v.023a28.38 28.38 0 01-.208-1.146 5.84 5.84 0 01-.224-.093c-.357.265-.726.518-1.108.759l-.023.015a1.6 1.6 0 01-.72.248h-.008c-.511.042-.97-.11-1.378-.457l-.054-.047a129.845 129.845 0 00-1.155-1.137c-.831-.772-.937-1.611-.317-2.517a5.419 5.419 0 01.782-1.123l-.112-.017-.097-.014a16.18 16.18 0 01-1.363-.272l.062.008a1.47 1.47 0 01-.79-.41 1.787 1.787 0 01-.596-1.216v-.078a83.756 83.756 0 00-.015-1.626c-.039-1.128.485-1.8 1.572-2.013l-.016.008c.376-.08.755-.149 1.139-.209a4.22 4.22 0 01.085-.217A19.578 19.578 0 014 7.75l-.016-.034a1.694 1.694 0 01-.216-.688l.007.024a1.714 1.714 0 01.449-1.41l.022-.028.002-.003c.372-.381.749-.764 1.13-1.145.772-.868 1.624-.979 2.555-.333h-.007c.318.214.634.434.944.658.054.035.106.072.159.11l.02.014.03-.217c.07-.447.156-.892.256-1.332l.008-.047a1.631 1.631 0 01.356-.658 1.783 1.783 0 011.254-.642h.063a86.133 86.133 0 011.672-.016c1.14-.042 1.799.48 1.982 1.572v-.023c.078.38.148.759.21 1.139a8.739 8.739 0 01.046.247c.535-.403.969-.713 1.3-.929l.038-.021.018-.01c.2-.114.426-.184.672-.21h.008c.512-.041.97.11 1.38.458l.032.027.021.02a116.01 116.01 0 001.153 1.137c.848.785.949 1.629.303 2.533v-.016l-.02.03c-.206.304-.413.609-.623.915-.04.053-.077.106-.116.16l-.024.034.233.03a20.01 20.01 0 011.332.256 1.438 1.438 0 01.696.356c.02.015.036.03.054.046.38.333.579.75.598 1.255v.023c.009.537.014 1.074.014 1.61zM11.146 3.767a.23.23 0 01-.007.032v.015l.007-.047zm-.039.11v-.01l-.007.01h.007zm-7.24 8.997l.008.007v-.007h-.008zm8.987 7.34l.004-.015v-.015l-.009.047a.174.174 0 00.005-.017zm.034-.092v.009l.008-.009h-.008zm5.615-6.992l.302-.031h-.054c.442-.07.883-.15 1.324-.24.044-.02.065-.062.062-.124v-.047c0-.516-.005-1.032-.015-1.548-.448-.097-.9-.177-1.356-.24a.55.55 0 01-.061-.016h-.009a.875.875 0 01-.587-.147.91.91 0 01-.38-.511 5.78 5.78 0 00-.427-1.038.916.916 0 01.163-1.092.582.582 0 00.07-.085v.008c.265-.377.526-.754.781-1.13v-.016c.011-.036-.005-.073-.046-.109-.008-.008-.015-.017-.023-.023-.376-.368-.749-.734-1.114-1.1-.395.257-.78.523-1.154.798l-.009.008a.24.24 0 00-.038.03.91.91 0 01-.534.31.903.903 0 01-.612-.093 5.375 5.375 0 00-1.015-.425.915.915 0 01-.48-.333.92.92 0 01-.186-.558.436.436 0 00-.007-.077 1.585 1.585 0 01-.016-.054c-.07-.442-.15-.883-.24-1.325V3.9c-.02-.03-.056-.043-.109-.039h-.046c-.527.001-1.047.006-1.564.016-.098.448-.177.9-.24 1.355a.732.732 0 01-.015.062v.008a.88.88 0 01-.149.588.914.914 0 01-.51.38 4.959 4.959 0 00-.991.418.908.908 0 01-.581.109.903.903 0 01-.527-.264.762.762 0 00-.093-.07.38.38 0 00-.023-.023c-.364-.263-.733-.52-1.107-.774h-.008c-.038-.016-.074-.003-.109.039a1.42 1.42 0 01-.017.017l-.022.021c-.368.37-.732.739-1.09 1.107.245.392.508.774.789 1.147.004.006.009.01.016.016a.91.91 0 01.348.557.888.888 0 01-.101.643c-.177.313-.31.644-.403.99a.901.901 0 01-.333.496.911.911 0 01-.565.194.642.642 0 00-.108.015.93.93 0 01-.045.006l-.017.002c-.43.058-.857.13-1.278.217l-.015.008c-.06.012-.084.053-.07.123v.032c.01.52.015 1.042.015 1.565.448.105.9.19 1.355.254a.218.218 0 00.063 0 .893.893 0 01.619.155.91.91 0 01.38.52 4.8 4.8 0 00.402.999c.097.18.131.37.101.572a.926.926 0 01-.264.526.423.423 0 00-.038.055l-.036.05-.01.012c-.266.354-.516.713-.752 1.077l-.002.002a.11.11 0 00-.013.021c-.018.046-.003.09.046.132a.445.445 0 01.023.023c.375.364.744.727 1.108 1.091.393-.247.772-.508 1.138-.781l.063-.047h.007a.917.917 0 01.527-.31.906.906 0 01.604.085c.337.175.689.322 1.054.442a.922.922 0 01.464.341.894.894 0 01.178.542.602.602 0 00.016.092 30.533 30.533 0 00.248 1.364v.023c.019.03.055.042.107.038h.047c.527 0 1.048-.006 1.565-.016.095-.448.177-.9.24-1.355a.478.478 0 01.015-.062v-.007a.88.88 0 01.147-.589.917.917 0 01.511-.38c.353-.105.69-.242 1.007-.41a.92.92 0 011.092.163l.01.006a1.29 1.29 0 01.1.067l.005.005c.365.263.734.52 1.108.774h.015c.037.01.073-.006.108-.047l.031-.03c.372-.373.739-.744 1.1-1.116-.245-.377-.51-.747-.79-1.108a3.698 3.698 0 01-.054-.077v-.007a.918.918 0 01-.31-.535.907.907 0 01.093-.612 5.38 5.38 0 00.427-1.014.935.935 0 01.293-.45c.14-.117.3-.187.48-.208zM14 12a2 2 0 11-4 0 2 2 0 014 0zm2 0a4 4 0 11-8 0 4 4 0 018 0z" fill="currentColor"/>
</svg>
